icon/gr/music.svg

<svg xmlns="http://www.w3.org/2000/svg" viewBox="0 0 24 24" height="1em" width="1em">
  <path fill="none" stroke="#000" stroke-width="2" d="M1,17.9979131 C1,16.8944962 1.88670635,16 2.99810135,16 L9,16 L9,20.0020869 C9,21.1055038 8.11329365,22 7.00189865,22 L2.99810135,22 C1.89458045,22 1,21.1017394 1,20.0020869 L1,17.9979131 Z M15,17.9979131 C15,16.8944962 15.8867064,16 16.9981014,16 L23,16 L23,20.0020869 C23,21.1055038 22.1132936,22 21.0018986,22 L16.9981014,22 C15.8945804,22 15,21.1017394 15,20.0020869 L15,17.9979131 Z M9,16 L9,2 L23,2 L23,15.5 M9,6 L23,6"/>
</svg>

<svg xmlns="http://www.w3.org/2000/svg" width="24" height="24"><path fill="none" stroke="#000" stroke-width="2" d="M1 17.998C1 16.894 1.887 16 2.998 16H9v4.002A1.993 1.993 0 0 1 7.002 22H2.998A2 2 0 0 1 1 20.002v-2.004Zm14 0c0-1.104.887-1.998 1.998-1.998H23v4.002A1.993 1.993 0 0 1 21.002 22h-4.004A2 2 0 0 1 15 20.002v-2.004ZM9 16V2h14v13.5M9 6h14"/></svg>
